!!!OTL: Hualezhetou huanatou
!!!ARE: Asia, China,ÿHubei, Xianfeng
!! I, 452
!!!SCT: C1456
!!!YEM: Copyright 1995, estate of Helmut Schaffrath.
**kern
*ICvox
*Ivox
*M2/4
*k[b-]
*F:
{8cc
8a
8cc
8a
=1
8cc
8ff
8dd
8cc
=2
8cc
4.a
=3
8cc
8ff
8dd
8cc
=4
8cc
4.a}
=5
{8cc
16a
16cc
8f
8g
=6
8f
8a
8g
8f
=7
8d
4d
8f
=8
4.g
8cc
=9
4.a
8g
=10
8f
8a
8g
8f
=11
8d
4.d}
==
!!!AGN: Wuge, Huadeng, Dengdiao
!!!ONB: ESAC (Essen Associative Code) Database: HUANG
!!!AMT: simple duple
!!!AIN: vox
!!!EED: Helmut Schaffrath
!!!EEV: 1.0
*-
